arkscan/icons/guardarian.svg

<svg viewBox="0 0 17 17" fill="none" xmlns="http://www.w3.org/2000/svg">
<path d="M4.33203 6.59961C4.53835 7.63088 5.01976 8.59335 5.70748 9.48711L12.153 9.48725C12.1597 9.48725 12.1558 9.49417 12.153 9.49766C11.2224 11.0792 9.90361 12.3397 8.18321 13.1996C9.21482 13.7496 10.3839 14.1621 11.553 14.3684C13.2036 13.0621 14.4415 11.4121 15.2667 9.62463C15.6793 8.66211 15.9544 7.63088 16.0919 6.59961H4.33203Z" fill="#2C52D1"/>
<path d="M8.59645 16.2938C9.62802 15.7438 10.5908 15.125 11.4848 14.4375C10.3157 14.2312 9.14661 13.8187 8.04624 13.2688C5.15787 11.55 3.30102 9.075 2.95718 6.32502C2.88842 5.98123 2.88842 5.63748 2.88842 5.29374V2.87903H13.2823V5.56452H16.1613V0H0V5.22498C0 9.76248 2.81961 13.8187 7.56484 16.225L8.04624 16.5L8.59645 16.2938Z" fill="#1932AE"/>
</svg>

<svg viewBox="0 0 17 17" fill="none" xmlns="http://www.w3.org/2000/svg"><path d="M4.332 6.6c.206 1.03.688 1.993 1.375 2.887h6.446c.007 0 .003.007 0 .01a9.408 9.408 0 0 1-3.97 3.703c1.032.55 2.2.962 3.37 1.168a12.956 12.956 0 0 0 3.714-4.743c.412-.963.687-1.994.825-3.025H4.332Z" fill="#2C52D1"/><path d="M8.596 16.294a20.71 20.71 0 0 0 2.889-1.857c-1.17-.206-2.338-.618-3.439-1.168-2.888-1.719-4.745-4.194-5.089-6.944-.069-.344-.069-.688-.069-1.031V2.879h10.394v2.686h2.88V0H0v5.225c0 4.537 2.82 8.594 7.565 11l.481.275.55-.206Z" fill="#1932AE"/></svg>
